X:1
T:Ecco solinga e delle selve
T:Pietro Benedetti
T:Source : Musiche di P. Benedetti---Libro secondo---Venetia---R.Amadino---1613. Editor : André Vierendeels (24/11/16).
T:Notes : Original clefs : C1, F4 Editorial accidentals above the staff Figures in BC are notated in original print Echo effect possible (with second soprano?)
T:Ecco solinga e delle selve
T:©
T:©
T:©
T:©
T:©
T:©
C:Pietro Benedetti
Z:©
%%score 1 2
L:1/8
Q:1/4=98
M:4/4
K:C
V:1 treble nm="Soprano" snm="S"
V:2 bass nm="MusicXML Part"
V:1
 G6 GG | B4 B4 | z dcB cd e2- | e2 c2 d4 | d4 z2 de | d2 ed c4 | d2 AA B>c B>c | %7
w: Ec- co so-|lin- ga|e del- le sel- * *|* ve'a- mi-|ca, ch'al- le|no- te d'al- trui|pre- sta ri- spon- * * *|
 de/d/ c/B/A/G/ A4 | z2 d>e c2 BA | c2 z f c4 | z2 e2 ^c>d c/4d/4c/4c/4c/4c/4d/4e/4 | %11
w: * * * * * * * di,|chè di Fil- li- de|mia, che fa|che bra- * * * * * * * * *|
 ^c4 c>d c/4d/4c/4c/4c/4c/4d/4e/4 | ^c4 z2 A2 | B4 B4 | z2 Bc dBcd | e4 B4 | e4 B4 | z4 f4 | %18
w: ma A- * * * * * * * * *|MA, s'el-|l'a- ma|per- che fug- ge'i miei la-|men- ti,|MEN- TI,|deh|
 edcB c4 | e2 AA B/c/d/c/ d/B/c/d/ | G/A/B/A/ B/G/A/^F/ G2 G2 | %21
w: non mi lu- sin- gar|dim- mi s'è ve- * * * * * * *|* * * * * * * * * ro,|
 B/c/d/c/ d/B/c/d/ G/A/B/A/ B/G/A/^F/ | G2 G2 z4 | e2 cd e2 d2 | cBcA B4 | B2 z d decB | A4 d4- | %27
w: VE- * * * * * * * * * * * * * * *|* RO,|quan- di s'in trec- cia'il|crin s'in- fio- ra'in- se-|no, per me che l'a- mo'as-|asai pian-|
 d2 ^GG B2 G2 | B2 ^G2 z4 | z AFE F4 | G2 GG A3 F | E^F/^G/ A/B/c/d/ e2 B2 | %32
w: * ge'o so- spi- ra,|SPI- RA,|Che ci- bo por-|ge'al- la sua dol- ce|spe- * * * * * * * ne,|
 E^F/^G/ A/B/c/d/ e2 B2 | z AAA A4 | A2 AG B2 c2 | d>e B>c d2 G2 | d>e B>c d2 G2 | z2 c2 A>A AB | %38
w: SPE- * * * * * * * NE,|e di tal es-|ca si nu- tri- sc'e|vi- * * * * ve,|VI- * * * * VE,|e chi gli sa- rà|
 c3 c d3 d | e>f d>e c2 c2 | e>f d>e c2 c2 | z2 BB d4- | d2 AA BABG | %43
w: fè dell' A- mor|mi- * * * * o,|I- * * * * O,|dil- le dun-|* que gen- til gio- co- sa'im-|
 A/G/^F/G/ A/G/A/B/ A/B/c/B/ A/B/c/d/ | e/d/c/d/ B/c/d/B/ c/B/A/B/ ^G/A/B/G/ | %45
w: ma- * * * * * * * * * * * * * * *||
 A>B A>B AB/A/ B/4A/4B/4A/4B/4A/4^G/4A/4 | B2 z B c2 A2 | B4 z dcB | d6 G2 | %49
w: |go, che d'A- mar|lei piu che'i mio|cor m'ap-|
 A/G/A/^F/ G/F/G/E/ F/E/F/G/ D/E/F/G/ | A/B/c/A/ B/A/B/G/ A4 | G8 |] %52
w: pa- * * * * * * * * * * * * * * *||go.|
V:2
"^BC" G,,8 | G,,8 | G,,4 C,4 |"^#" D,4 G,,4 | G,,4 G,4- | G,2 E,2 F,4 | ^F,4 G,4 |"^#" G,,4 D,4 | %8
"^#" D,4 A,,4 | F,,4 F,4 | G,4 A,4 | A,8- |"^#" A,4 D,4 | G,,8 | G,6 F,2 |"^4""^#" E,4 E,4 | %16
"^4""^#" E,4 E,4 | D,8 | D,4 A,,4 | A,,4 G,,4 | G,,8 | G,,8 | G,,4 z4 | C,4 C2 B,2 | %24
"^6 #" A,2 A,2 G,4 | G,4 G,2 E,2 | F,8 | E,8 | E,4 A,,4 | A,,4 D,4 | C,4 ^C,2 D,2 |"^#" E,8 | %32
"^#" E,8 |"^#" A,,4 D,4 |"^#" D,4 G,,4 | G,,8 | G,,8 | C,4 F,4- |"^7       6" F,2 E,2 D,2 D,2 | %39
 C,8 | C,8 | G,,4 G,4 | ^F,4 G,4 |"^#" D,8 | A,,8 | A,,8 |"^#" E,4 A,,2 D,2 |"^#" G,,8 | %48
 G,,4 B,,4 |"^#" D,8 |"^#""^4""^#" D,2 D,4 D,2 | G,,8 |] %52

